build/images/icons/search-black.svg

<svg width="25" height="24" viewBox="0 0 25 24" fill="none" xmlns="http://www.w3.org/2000/svg">
<path d="M24.0889 22.2056L18.4027 16.8577C20.2569 15.0556 21.4313 12.6142 21.4313 9.88208C21.4313 4.41787 16.7339 0 10.9241 0C5.1143 0 0.416992 4.41787 0.416992 9.88208C0.416992 15.3463 5.1143 19.7642 10.9241 19.7642C13.1492 19.7642 15.2506 19.0666 16.9812 17.9621L22.791 23.4263C22.9764 23.6007 23.2236 23.6589 23.4709 23.6589C23.7181 23.6589 23.9653 23.6007 24.1507 23.4263C24.4598 23.0776 24.4598 22.5544 24.0889 22.2056ZM2.27119 9.88208C2.27119 5.40608 6.16501 1.7439 10.9241 1.7439C15.6832 1.7439 19.5771 5.40608 19.5771 9.88208C19.5771 14.3581 15.6832 18.0203 10.9241 18.0203C6.16501 18.0203 2.27119 14.3581 2.27119 9.88208Z" fill="#2F3035"/>
</svg>

<svg width="25" height="24" fill="none" xmlns="http://www.w3.org/2000/svg"><path d="M24.089 22.206l-5.686-5.348c1.854-1.802 3.028-4.244 3.028-6.976C21.431 4.418 16.734 0 10.924 0S.417 4.418.417 9.882c0 5.464 4.697 9.882 10.507 9.882 2.225 0 4.327-.697 6.057-1.802l5.81 5.464c.185.175.433.233.68.233.247 0 .494-.058.68-.233a.86.86 0 00-.062-1.22zM2.27 9.882c0-4.476 3.894-8.138 8.653-8.138 4.76 0 8.653 3.662 8.653 8.138s-3.894 8.138-8.653 8.138S2.27 14.358 2.27 9.882z" fill="#2F3035"/></svg>
